X: 1
T:Allegro
C:Johann Joachim Quantz
Z:Transcribed by Frank Nordberg - http://www.musicaviva.com

V:1 Program 1 73 %Flute
V:2 Program 1 72 %Piccolo
M:2/4
L:1/16
Q:1/4=132
K:D
V:1
A2|.a2.g2.f2.e2|d4A4|.a2.g2.f2.e2|d6g2|f2fg fga2|e2e2 efg2|
V:2
z2|z4z2A2|.a2.g2.f2.e2|d4A4|.a2.g2.f2.e2|.d2.d2 def2|c2c2 cde2|

V:1
f2f2 fga2|e6g2|(fe)fg (fg)af|(ed)ef (ef)ge|(fe)fg (fg)af|e4z2a2|
V:2
d2d2 def2|A2B2c2 e2|(dc)de (de)fd|(cB)cd (cd)ec|(dc)de (de)fd|A2B2c2 c2|

V:1
b2a^g a2ga|b2a^g a2 A2|d2cB c2Bc|d2cB c2e2|c2BA B2(T^G2 )|A6::e2|
V:2
d2cB c2Bc|d2cB c2 A2|B2A^G A2GA|B2A^G A2B2|A2^GA B2B,2|C6::^G2|

V:1
c2BA B2e2|d2cB c2f2|d2cB c2f2|b2(b^a) b2 f2|(gf)ef g2f2|b2(b^a) b2f2|
V:2
A2 z2 ^G2 z2|B2 z2 ^A2 z2|B2 z2 ^A2c2|d2(dc) d2d2|(ed)cd e2d2|d2(dc) d2d2|

V:1
(Mg2f2) z2 f2|e2(ed) (ed)(ce)|d2(dc) (dc)(Bd)|e2(ed) (ed)(ce)|(Md2c2) z2 f2|(b^ab)c (Tc3B)|
V:2
(Me2d2) z2 d2|c2(cB) (cB)(^Ac)|B4 z2^G2|c2(cB) (cB)(^Ac)|(MB2^A2) (Bc)(dB)|(d2B2) (T^A3A)|

V:1
B6d2|A2d2A2d2|(3f2g2a2 A4|A2d2A2d2|(3f2g2a2 A2 f2|g2fe f2ef|g2fe f2a2|
V:2
B6A2|F2A2F2A2|(3d2e2f2 f4|F2A2F2A2|(3d2e2f2 f2 d2|e2dc d2cd|e2dc d2f2|

V:1
b2ag a2f2|b2ag a2 A2|a2g2f2e2|d4A4|a2g2f2e2|d6a2|(fg)af (ba)bg|
V:2
g2fe f2d2|g2fe f2 z2|z4z2A2|a2g2f2e2|d4A4|a2g2f2e2|(de)fd (gf)ge|

V:1
(ef)ge (ag)af|(de)fd (ga)gf|e6e2|f2ef g2fe|f2ef g2fe|f2ga A2(Tc2)|d6:|
V:2
(cd)ec (fe)fd|(Bc)dB (ef)ed|(cd)cB A2 c2|d2cd e2dc|d2cd e2dc|d2ef F2E2|F6:|

